X: 25992
T: Mayo Fling, The
R: hornpipe
M: 4/4
K: Dmajor
A>FD>F E>FD>F|A4A4|A>FD>F E>FD>F|B4{cB}B4|
d3c B/c/d B>A|F/G/A F>E E>DB,>A,|D>EF>A B>AF>E|D4D4:|
a/f/a f>e f/e/d A2|B/c/d B>A F>E D2|E/D/E F/E/F A>FE>D|B4{cB}B4|
a/f/a f>e f/e/d A2|B/c/d B>A F>E D2|E/D/E F/E/F B>FE>D|D4D4:|

